assets/light/git-pull-request-light.svg

<svg id="Flat" xmlns="http://www.w3.org/2000/svg" viewBox="0 0 256 256">
  <path d="M102.00049,68a34,34,0,1,0-40,33.45911v53.08178a34,34,0,1,0,12,0V101.45911A34.04849,34.04849,0,0,0,102.00049,68Zm-56,0a22,22,0,1,1,22,22A22.02489,22.02489,0,0,1,46.00049,68Zm44,120a22,22,0,1,1-22-22A22.02489,22.02489,0,0,1,90.00049,188Zm104.002-33.45911-.00195-34.65954a53.64649,53.64649,0,0,0-15.81641-38.18213L150.48584,54h25.51465a6,6,0,0,0,0-12h-39.999l-.00439.00018a6.01252,6.01252,0,0,0-1.0957.10492c-.022.00409-.04395.00568-.06592.01a5.95971,5.95971,0,0,0-1.03369.30634c-.02832.01117-.05713.01965-.085.03125a5.9733,5.9733,0,0,0-.96729.509c-.02295.01495-.04687.02734-.06982.04266a6.03164,6.03164,0,0,0-1.67578,1.67658c-.01416.02081-.02539.04254-.03858.06347a5.97322,5.97322,0,0,0-.51318.97468c-.01026.02526-.01807.051-.02783.07641a5.93777,5.93777,0,0,0-.30909,1.042c-.0039.01947-.00537.039-.00878.05848a6.003,6.003,0,0,0-.106,1.104V88a6,6,0,0,0,12,0V62.48523l27.69824,27.69934a41.72507,41.72507,0,0,1,12.30176,29.69727l.00195,34.65911a33.99983,33.99983,0,1,0,12-.00006Zm-6,55.45911a22,22,0,1,1,22-22A22.02489,22.02489,0,0,1,188.00244,210Z"/>
</svg>

<svg xmlns="http://www.w3.org/2000/svg" viewBox="0 0 256 256"><path d="M102,68a34,34,0,1,0-40,33.5v53a34,34,0,1,0,12,0v-53A34.1,34.1,0,0,0,102,68ZM46,68A22,22,0,1,1,68,90,22.1,22.1,0,0,1,46,68ZM90,188a22,22,0,1,1-22-22A22.1,22.1,0,0,1,90,188Zm104-33.5V119.9a53.7,53.7,0,0,0-15.8-38.2L150.5,54H176a6,6,0,0,0,0-12H136a6,6,0,0,0-6,6V88a6,6,0,0,0,12,0V62.5l27.7,27.7A41.8,41.8,0,0,1,182,119.9v34.6a34,34,0,1,0,12,0ZM188,210a22,22,0,1,1,22-22A22.1,22.1,0,0,1,188,210Z"/></svg>
